X: 1
T: O'Sullivan's March
R: jig
M: 6/8
L: 1/8
K: Gmaj
D |: GBA ABd | edB A2 G | GBA ~B3 |1 AGG G2 D :|2 AGG G2 g ||
|: e2 g e2 g | ege edB | ded dBd | deB {d}BAG |
cBc dcd | e/f/gB A2 G | GBA ~B3 |1 AGG G2 g :|2 AGG G2 D ||
|: GAB dBA | GAB ~B3 | GAB edB | dBA A2 B |
GAB dBA | BAB ~g3 | fed edB |1 dBA A2 D :|2 dBA A2 B ||
|: dBB gBB | dBB d2 e | dBB gfg | edB A2 B/A/ |
GAB dBA | BAB ~g3 | fed edB | dBA A2 B :|


Tune 2204	Setting 22667

